soy-sauce-off.svg

<svg fill="currentColor" viewBox="0 0 24 24"><path d="M22.1 21.5 2.4 1.7 1.1 3l7.5 7.5C7.5 12.6 6 15.3 6 17.6v2c0 1.4 2.7 2.3 6 2.3 3.1 0 5.7-.8 6-2l2.9 2.9zM12 15c-1.1 0-2-.9-2-2 0-.3.1-.6.2-.9l2.7 2.7c-.3.1-.6.2-.9.2M8.3 3.5h-.8V2h9v1.5h-.8L14.8 6h-.6c-.1.3-.3.8-.3 1.5 0 .9 2 3.5 3.2 6.4l-7-7q-.15-.6-.3-.9h-.6z"/></svg>

<svg  viewBox="0 0 24 24" fill="currentColor"><path  d="M22.1 21.5L2.4 1.7L1.1 3L8.6 10.5C7.5 12.6 6 15.3 6 17.6V19.6C6 21 8.7 21.9 12 21.9C15.1 21.9 17.7 21.1 18 19.9L20.9 22.8L22.1 21.5M12 15C10.9 15 10 14.1 10 13C10 12.7 10.1 12.4 10.2 12.1L12.9 14.8C12.6 14.9 12.3 15 12 15M8.3 3.5H7.5V2H16.5V3.5H15.7L14.8 6H14.2C14.1 6.3 13.9 6.8 13.9 7.5C13.9 8.4 15.9 11 17.1 13.9L10.1 6.9C10 6.5 9.9 6.2 9.8 6H9.2L8.3 3.5Z"/></svg>
